X:1
T:Tatter Jack Walsh (extra-modal)
M:6/8
L:1/8
S:LNugent W-Gap Trk-1
R:Slow Jig
Z:Ed Wosika
K:D
 | =fAA ded| cAB c3| dcA GFG| Add e=fg|
 =fAA ded| cAB c3| dcA GFG| 1 Add d3:|2
 Add d2:|
 A| d=fa a=fa| d=fa a=fa| ge=f g2a| ge=f g3|
 a(3=fed ded| cAB c3| dcA GFG| Add d2:|
